Obsidian-SemiLight/actions/16s/composition.svg

<svg viewBox="0 0 16 16" xmlns="http://www.w3.org/2000/svg"><path d="m7 2v4.6660156l-2.5 3.3339844 3 4 3-4-2.5-3.3339844v-4.6660156zm.5 5.6679688 1.75 2.3320312-1.75 2.332031-1.75-2.332031z" fill="#4d4d4d"/></svg>

<svg xmlns="http://www.w3.org/2000/svg" viewBox="0 0 16 16">
  <defs id="defs3051">
    <style type="text/css" id="current-color-scheme">
      .ColorScheme-Text {
        color:#4d4d4d;
      }
      </style>
  </defs>
 <path style="fill:currentColor;fill-opacity:1;stroke:none" 
     d="M 7 2 L 7 6.6660156 L 4.5 10 L 7.5 14 L 10.5 10 L 8 6.6660156 L 8 2 L 7 2 z M 7.5 7.6679688 L 9.25 10 L 7.5 12.332031 L 5.75 10 L 7.5 7.6679688 z "
     class="ColorScheme-Text"
     />
</svg>
